packages/tokens/icons/setTo/size32Px.svg

<svg viewBox="0 0 32 32" fill="none" xmlns="http://www.w3.org/2000/svg" width="1em" height="1em"><path d="M14.7472 4.48083C14.1165 4.65637 13.5798 5.07231 13.2525 5.63927M14.7472 4.48083L13.2525 5.63927M14.7472 4.48083L14.8812 4.96252L13.2525 5.63927M14.7472 4.48083L21.6822 2.55056C22.983 2.1885 24.3363 2.92478 24.7389 4.21361L27.0267 11.5376C27.2349 12.2045 27.1547 12.928 26.8054 13.533L18.2547 28.3434C17.5643 29.5391 16.0353 29.9488 14.8396 29.2584L5.58693 23.9164C4.39119 23.226 3.98151 21.697 4.67186 20.5013L13.2525 5.63927" stroke="currentColor" stroke-linecap="round"/><path d="M12.5 16.5L14.5 21.5L20.5 11.5" stroke="currentColor" stroke-linecap="round" stroke-linejoin="round"/></svg>

<svg xmlns="http://www.w3.org/2000/svg" fill="none" viewBox="0 0 32 32" width="1em" height="1em"><path stroke="currentColor" stroke-linecap="round" d="M14.747 4.48a2.5 2.5 0 0 0-1.495 1.16m1.495-1.16-1.495 1.16m1.495-1.16.134.483-1.629.676m1.495-1.158 6.935-1.93a2.5 2.5 0 0 1 3.057 1.663l2.288 7.324a2.5 2.5 0 0 1-.222 1.995l-8.55 14.81a2.5 2.5 0 0 1-3.415.915l-9.253-5.342a2.5 2.5 0 0 1-.915-3.415l8.58-14.862"/><path stroke="currentColor" stroke-linecap="round" stroke-linejoin="round" d="m12.5 16.5 2 5 6-10"/></svg>
